src/img/law.svg

<svg width="55" height="54" viewBox="0 0 55 54" fill="none" xmlns="http://www.w3.org/2000/svg">
<path d="M41.25 0H11.9167C11.188 0.00213668 10.4898 0.287286 9.97453 0.793172C9.45927 1.29906 9.16884 1.98457 9.16667 2.7V21.6H5.5C5.38377 21.5982 5.26838 21.6197 5.16083 21.663L0.577501 23.463C0.406941 23.5297 0.260707 23.6451 0.157741 23.7944C0.0547756 23.9436 -0.000177295 24.1197 4.2973e-07 24.3V36.9C0.000781538 37.0482 0.0388443 37.194 0.110807 37.3243C0.182769 37.4546 0.286403 37.5655 0.4125 37.647L3.17167 39.447C3.32001 39.5471 3.49586 39.6004 3.67583 39.6H9.16667V51.3C9.16884 52.0154 9.45927 52.7009 9.97453 53.2068C10.4898 53.7127 11.188 53.9979 11.9167 54H41.25C41.9787 53.9979 42.6769 53.7127 43.1921 53.2068C43.7074 52.7009 43.9978 52.0154 44 51.3V2.7C43.9978 1.98457 43.7074 1.29906 43.1921 0.793172C42.6769 0.287286 41.9787 0.00213668 41.25 0ZM9.075 28.8H9.16667V37.8H3.95083L1.83333 36.414V24.912L5.67417 23.4H16.5C16.9862 23.4 17.4525 23.5896 17.7964 23.9272C18.1402 24.2648 18.3333 24.7226 18.3333 25.2C18.3333 25.6774 18.1402 26.1352 17.7964 26.4728C17.4525 26.8104 16.9862 27 16.5 27H8.25C8.00688 27 7.77373 27.0948 7.60182 27.2636C7.42991 27.4324 7.33333 27.6613 7.33333 27.9C7.33116 28.6154 7.04073 29.3009 6.52547 29.8068C6.01022 30.3127 5.31201 30.5979 4.58333 30.6V32.4C5.63952 32.3987 6.66296 32.0399 7.48115 31.3842C8.29933 30.7284 8.86224 29.8157 9.075 28.8ZM42.1667 51.3C42.1667 51.5387 42.0701 51.7676 41.8982 51.9364C41.7263 52.1052 41.4931 52.2 41.25 52.2H11.9167C11.6736 52.2 11.4404 52.1052 11.2685 51.9364C11.0966 51.7676 11 51.5387 11 51.3V28.8H16.5C17.4725 28.8 18.4051 28.4207 19.0927 27.7456C19.7804 27.0705 20.1667 26.1548 20.1667 25.2C20.1667 24.2452 19.7804 23.3295 19.0927 22.6544C18.4051 21.9793 17.4725 21.6 16.5 21.6H11V2.7C11 2.46131 11.0966 2.23239 11.2685 2.0636C11.4404 1.89482 11.6736 1.8 11.9167 1.8H41.25C41.4931 1.8 41.7263 1.89482 41.8982 2.0636C42.0701 2.23239 42.1667 2.46131 42.1667 2.7V51.3Z" fill="url(#paint0_linear)"/>
<path d="M26.5833 16.2C26.8264 16.2 27.0595 16.1051 27.2314 15.9363L32.417 10.845L31.1208 9.57241L26.5833 14.0274L24.6381 12.1176L23.342 13.3902L25.9352 15.9363C26.1071 16.1051 26.3402 16.2 26.5833 16.2Z" fill="url(#paint1_linear)"/>
<path d="M35.2092 7.28099L26.9592 3.68099C26.8413 3.62764 26.7131 3.6 26.5833 3.6C26.4536 3.6 26.3253 3.62764 26.2075 3.68099L17.9575 7.28099C17.7957 7.35076 17.6583 7.46549 17.5622 7.61102C17.4661 7.75656 17.4155 7.92654 17.4167 8.09999V13.869C17.4162 15.012 17.6627 16.1421 18.1399 17.1846C18.6171 18.2271 19.3142 19.1584 20.185 19.917L25.9783 24.975C26.1456 25.1193 26.3607 25.1989 26.5833 25.1989C26.806 25.1989 27.021 25.1193 27.1883 24.975L32.9817 19.917C33.8525 19.1584 34.5495 18.2271 35.0267 17.1846C35.5039 16.1421 35.7504 15.012 35.75 13.869V8.09999C35.7511 7.92654 35.7005 7.75656 35.6044 7.61102C35.5083 7.46549 35.3709 7.35076 35.2092 7.28099ZM33.9167 13.869C33.9155 14.7583 33.7231 15.6373 33.3518 16.4485C32.9806 17.2596 32.439 17.9846 31.7625 18.576L26.5833 23.094L21.4042 18.576C20.7277 17.9846 20.186 17.2596 19.8148 16.4485C19.4436 15.6373 19.2511 14.7583 19.25 13.869V8.68499L26.5833 5.48099L33.9167 8.68499V13.869Z" fill="url(#paint2_linear)"/>
<path d="M54.0833 18H51.3333V15.3C51.3333 14.5839 51.0436 13.8972 50.5279 13.3908C50.0121 12.8845 49.3127 12.6 48.5833 12.6C47.854 12.6 47.1545 12.8845 46.6388 13.3908C46.1231 13.8972 45.8333 14.5839 45.8333 15.3V45.9C45.8334 45.9728 45.8427 46.0454 45.8608 46.116L47.6942 53.316C47.7438 53.5106 47.8583 53.6833 48.0194 53.8068C48.1805 53.9302 48.379 53.9972 48.5833 53.9972C48.7877 53.9972 48.9861 53.9302 49.1472 53.8068C49.3083 53.6833 49.4228 53.5106 49.4725 53.316L51.3058 46.116C51.324 46.0454 51.3332 45.9728 51.3333 45.9V19.8H53.1667V27.9H55V18.9C55 18.6613 54.9034 18.4324 54.7315 18.2636C54.5596 18.0948 54.3264 18 54.0833 18ZM48.5833 49.392L47.9233 46.8H49.2433L48.5833 49.392ZM49.5 45H47.6667V19.8H49.5V45ZM49.5 18H47.6667V15.3C47.6667 15.0613 47.7632 14.8324 47.9352 14.6636C48.1071 14.4948 48.3402 14.4 48.5833 14.4C48.8264 14.4 49.0596 14.4948 49.2315 14.6636C49.4034 14.8324 49.5 15.0613 49.5 15.3V18Z" fill="url(#paint3_linear)"/>
<path d="M14.6667 32.4H18.3333V34.2H14.6667V32.4Z" fill="url(#paint4_linear)"/>
<path d="M20.1667 32.4H38.5V34.2H20.1667V32.4Z" fill="url(#paint5_linear)"/>
<path d="M14.6667 37.8H18.3333V39.6H14.6667V37.8Z" fill="url(#paint6_linear)"/>
<path d="M20.1667 37.8H38.5V39.6H20.1667V37.8Z" fill="url(#paint7_linear)"/>
<path d="M14.6667 43.2H18.3333V45H14.6667V43.2Z" fill="url(#paint8_linear)"/>
<path d="M20.1667 43.2H38.5V45H20.1667V43.2Z" fill="url(#paint9_linear)"/>
<path d="M14.6667 48.6H18.3333V50.4H14.6667V48.6Z" fill="url(#paint10_linear)"/>
<path d="M20.1667 48.6H38.5V50.4H20.1667V48.6Z" fill="url(#paint11_linear)"/>
<defs>
<linearGradient id="paint0_linear" x1="27.5" y1="0" x2="27.5" y2="54" gradientUnits="userSpaceOnUse">
<stop stop-color="#36B1FF"/>
<stop offset="1" stop-color="#8843FB"/>
</linearGradient>
<linearGradient id="paint1_linear" x1="27.5" y1="0" x2="27.5" y2="54" gradientUnits="userSpaceOnUse">
<stop stop-color="#36B1FF"/>
<stop offset="1" stop-color="#8843FB"/>
</linearGradient>
<linearGradient id="paint2_linear" x1="27.5" y1="0" x2="27.5" y2="54" gradientUnits="userSpaceOnUse">
<stop stop-color="#36B1FF"/>
<stop offset="1" stop-color="#8843FB"/>
</linearGradient>
<linearGradient id="paint3_linear" x1="27.5" y1="0" x2="27.5" y2="54" gradientUnits="userSpaceOnUse">
<stop stop-color="#36B1FF"/>
<stop offset="1" stop-color="#8843FB"/>
</linearGradient>
<linearGradient id="paint4_linear" x1="27.5" y1="0" x2="27.5" y2="54" gradientUnits="userSpaceOnUse">
<stop stop-color="#36B1FF"/>
<stop offset="1" stop-color="#8843FB"/>
</linearGradient>
<linearGradient id="paint5_linear" x1="27.5" y1="0" x2="27.5" y2="54" gradientUnits="userSpaceOnUse">
<stop stop-color="#36B1FF"/>
<stop offset="1" stop-color="#8843FB"/>
</linearGradient>
<linearGradient id="paint6_linear" x1="27.5" y1="0" x2="27.5" y2="54" gradientUnits="userSpaceOnUse">
<stop stop-color="#36B1FF"/>
<stop offset="1" stop-color="#8843FB"/>
</linearGradient>
<linearGradient id="paint7_linear" x1="27.5" y1="0" x2="27.5" y2="54" gradientUnits="userSpaceOnUse">
<stop stop-color="#36B1FF"/>
<stop offset="1" stop-color="#8843FB"/>
</linearGradient>
<linearGradient id="paint8_linear" x1="27.5" y1="0" x2="27.5" y2="54" gradientUnits="userSpaceOnUse">
<stop stop-color="#36B1FF"/>
<stop offset="1" stop-color="#8843FB"/>
</linearGradient>
<linearGradient id="paint9_linear" x1="27.5" y1="0" x2="27.5" y2="54" gradientUnits="userSpaceOnUse">
<stop stop-color="#36B1FF"/>
<stop offset="1" stop-color="#8843FB"/>
</linearGradient>
<linearGradient id="paint10_linear" x1="27.5" y1="0" x2="27.5" y2="54" gradientUnits="userSpaceOnUse">
<stop stop-color="#36B1FF"/>
<stop offset="1" stop-color="#8843FB"/>
</linearGradient>
<linearGradient id="paint11_linear" x1="27.5" y1="0" x2="27.5" y2="54" gradientUnits="userSpaceOnUse">
<stop stop-color="#36B1FF"/>
<stop offset="1" stop-color="#8843FB"/>
</linearGradient>
</defs>
</svg>

<svg width="55" height="54" fill="none" xmlns="http://www.w3.org/2000/svg"><path d="M41.25 0H11.917a2.784 2.784 0 0 0-1.942.793A2.683 2.683 0 0 0 9.167 2.7v18.9H5.5a.872.872 0 0 0-.34.063l-4.582 1.8a.913.913 0 0 0-.42.331A.888.888 0 0 0 0 24.3v12.6a.887.887 0 0 0 .412.747l2.76 1.8a.9.9 0 0 0 .504.153h5.49v11.7c.003.715.293 1.4.809 1.907a2.784 2.784 0 0 0 1.942.793H41.25a2.784 2.784 0 0 0 1.942-.793A2.683 2.683 0 0 0 44 51.3V2.7a2.683 2.683 0 0 0-.808-1.907A2.784 2.784 0 0 0 41.25 0ZM9.075 28.8h.092v9H3.95l-2.118-1.386V24.912L5.674 23.4H16.5c.486 0 .953.19 1.296.527.344.338.537.796.537 1.273 0 .477-.193.935-.537 1.273A1.85 1.85 0 0 1 16.5 27H8.25a.925.925 0 0 0-.648.264.892.892 0 0 0-.269.636 2.683 2.683 0 0 1-.808 1.907 2.784 2.784 0 0 1-1.942.793v1.8a4.645 4.645 0 0 0 2.898-1.016A4.495 4.495 0 0 0 9.075 28.8Zm33.092 22.5a.892.892 0 0 1-.269.636.925.925 0 0 1-.648.264H11.917a.925.925 0 0 1-.649-.264A.892.892 0 0 1 11 51.3V28.8h5.5c.973 0 1.905-.38 2.593-1.054a3.567 3.567 0 0 0 1.074-2.546c0-.955-.387-1.87-1.074-2.546A3.701 3.701 0 0 0 16.5 21.6H11V2.7c0-.239.097-.468.268-.636a.925.925 0 0 1 .649-.264H41.25c.243 0 .476.095.648.264a.892.892 0 0 1 .269.636v48.6Z" fill="url(#a)"/><path d="M26.583 16.2a.925.925 0 0 0 .648-.264l5.186-5.091-1.296-1.273-4.538 4.455-1.945-1.91-1.296 1.273 2.593 2.546a.925.925 0 0 0 .648.264Z" fill="url(#b)"/><path d="m35.21 7.281-8.25-3.6a.912.912 0 0 0-.753 0l-8.25 3.6a.9.9 0 0 0-.395.33.876.876 0 0 0-.145.489v5.769a7.97 7.97 0 0 0 .723 3.316 8.093 8.093 0 0 0 2.045 2.732l5.793 5.058a.927.927 0 0 0 1.21 0l5.794-5.058a8.093 8.093 0 0 0 2.045-2.732 7.957 7.957 0 0 0 .723-3.316V8.1a.877.877 0 0 0-.146-.489.9.9 0 0 0-.395-.33Zm-1.293 6.588a6.216 6.216 0 0 1-.565 2.58 6.321 6.321 0 0 1-1.59 2.127l-5.179 4.518-5.179-4.518a6.321 6.321 0 0 1-1.59-2.128 6.216 6.216 0 0 1-.564-2.579V8.685l7.333-3.204 7.334 3.204v5.184Z" fill="url(#c)"/><path d="M54.083 18h-2.75v-2.7c0-.716-.29-1.403-.805-1.91a2.776 2.776 0 0 0-1.945-.79c-.729 0-1.428.284-1.944.79a2.676 2.676 0 0 0-.806 1.91v30.6c0 .073.01.145.028.216l1.833 7.2c.05.195.164.367.325.49a.928.928 0 0 0 1.128 0 .9.9 0 0 0 .325-.49l1.834-7.2a.87.87 0 0 0 .027-.216V19.8h1.834v8.1H55v-9a.892.892 0 0 0-.269-.636.925.925 0 0 0-.648-.264Zm-5.5 31.392-.66-2.592h1.32l-.66 2.592ZM49.5 45h-1.833V19.8H49.5V45Zm0-27h-1.833v-2.7c0-.239.096-.468.268-.636a.925.925 0 0 1 1.296 0 .892.892 0 0 1 .269.636V18Z" fill="url(#d)"/><path d="M14.667 32.4h3.666v1.8h-3.666v-1.8Z" fill="url(#e)"/><path d="M20.167 32.4H38.5v1.8H20.167v-1.8Z" fill="url(#f)"/><path d="M14.667 37.8h3.666v1.8h-3.666v-1.8Z" fill="url(#g)"/><path d="M20.167 37.8H38.5v1.8H20.167v-1.8Z" fill="url(#h)"/><path d="M14.667 43.2h3.666V45h-3.666v-1.8Z" fill="url(#i)"/><path d="M20.167 43.2H38.5V45H20.167v-1.8Z" fill="url(#j)"/><path d="M14.667 48.6h3.666v1.8h-3.666v-1.8Z" fill="url(#k)"/><path d="M20.167 48.6H38.5v1.8H20.167v-1.8Z" fill="url(#l)"/><defs><linearGradient id="a" x1="27.5" y1="0" x2="27.5" y2="54" gradientUnits="userSpaceOnUse"><stop stop-color="#36B1FF"/><stop offset="1" stop-color="#8843FB"/></linearGradient><linearGradient id="b" x1="27.5" y1="0" x2="27.5" y2="54" gradientUnits="userSpaceOnUse"><stop stop-color="#36B1FF"/><stop offset="1" stop-color="#8843FB"/></linearGradient><linearGradient id="c" x1="27.5" y1="0" x2="27.5" y2="54" gradientUnits="userSpaceOnUse"><stop stop-color="#36B1FF"/><stop offset="1" stop-color="#8843FB"/></linearGradient><linearGradient id="d" x1="27.5" y1="0" x2="27.5" y2="54" gradientUnits="userSpaceOnUse"><stop stop-color="#36B1FF"/><stop offset="1" stop-color="#8843FB"/></linearGradient><linearGradient id="e" x1="27.5" y1="0" x2="27.5" y2="54" gradientUnits="userSpaceOnUse"><stop stop-color="#36B1FF"/><stop offset="1" stop-color="#8843FB"/></linearGradient><linearGradient id="f" x1="27.5" y1="0" x2="27.5" y2="54" gradientUnits="userSpaceOnUse"><stop stop-color="#36B1FF"/><stop offset="1" stop-color="#8843FB"/></linearGradient><linearGradient id="g" x1="27.5" y1="0" x2="27.5" y2="54" gradientUnits="userSpaceOnUse"><stop stop-color="#36B1FF"/><stop offset="1" stop-color="#8843FB"/></linearGradient><linearGradient id="h" x1="27.5" y1="0" x2="27.5" y2="54" gradientUnits="userSpaceOnUse"><stop stop-color="#36B1FF"/><stop offset="1" stop-color="#8843FB"/></linearGradient><linearGradient id="i" x1="27.5" y1="0" x2="27.5" y2="54" gradientUnits="userSpaceOnUse"><stop stop-color="#36B1FF"/><stop offset="1" stop-color="#8843FB"/></linearGradient><linearGradient id="j" x1="27.5" y1="0" x2="27.5" y2="54" gradientUnits="userSpaceOnUse"><stop stop-color="#36B1FF"/><stop offset="1" stop-color="#8843FB"/></linearGradient><linearGradient id="k" x1="27.5" y1="0" x2="27.5" y2="54" gradientUnits="userSpaceOnUse"><stop stop-color="#36B1FF"/><stop offset="1" stop-color="#8843FB"/></linearGradient><linearGradient id="l" x1="27.5" y1="0" x2="27.5" y2="54" gradientUnits="userSpaceOnUse"><stop stop-color="#36B1FF"/><stop offset="1" stop-color="#8843FB"/></linearGradient></defs></svg>
